X: 11002
M: C
L: 1/8
K: G
d |\
g2dc {c}B2AG | F>GAB cAAd |\
gfgd cBAG | D>FAc BG G :: B |\
(DG).B.G A>GBG | (DG).B.G cAAc |
(DG).B.G A>GBG | (DG).B.G cAAc |\


